X:1
T: Get up Old Woman and Shake Yourself
C:
R:Jig
Q:180
K:Em
M:6/8
L:1/16
EF|G4B2 B2A2B2|G4E2 E4G2|F4A2 A2F2A2|F4D2 D2E2F2|G4B2 B2A2B2|d2e2f2 g2f2e2|d2c2B2 B2A2B2|G4E2 E4EF|
G4B2 B2A2B2|G4E2 E4G2|F4A2 A2F2A2|F4D2 D2E2F2|G4B2 B2A2B2|d2e2f2 g2f2e2|d2c2B2 B2A2B2|G4E2 E4Bc|
d4B2 B2A2B2|d4B2 A2B2c2|d4B2 B2A2B2|G4E2 E4Bc|d4B2 B2A2B2|d2e2f2 g2f2e2|d2c2B2 B2A2B2|G4E2 E4Bc|
d4B2 B2A2B2|d4B2 A2B2c2|d4B2 B2A2B2|G4E2 E4Bc|d4B2 B2A2B2|d2e2f2 g2f2e2|d2c2B2 B2A2B2|G4E2 E4||
